X:64
T:Little Man & Maid, The
M:C |
L:1/8
B:Thompson's Compleat Collection of 200 Favourite Country Dances, vol. 2 (London, 1765)
Z:Transcribed and edited by Flynn Titford-Mock, 2007
Z:abc's:AK/Fiddler's Companion
K:Gmin
G2 | G2^F2 G2A2 | B4 B2B2 | A2F2 F2F2 | F4 ^F2D2 | G4 G2A2 | B4 A2G2 | .D4 .D4 | .D4 :|
|: d2e2 | f2d2B2d2 | f4 e2d2 | c2A2F2A2 | c4 B2c2 | d2d2c2B2 | B2A2G2^F2 | .G4 .G4 | .G4 :|

